packages/foundations/icons/Education/TestingTube.svg

<svg width="24" height="24" viewBox="0 0 24 24" fill="none" xmlns="http://www.w3.org/2000/svg">
<path d="M13 14C13.5523 14 14 13.5523 14 13C14 12.4477 13.5523 12 13 12C12.4477 12 12 12.4477 12 13C12 13.5523 12.4477 14 13 14Z" fill="#3D474D"/>
<path d="M11 2C11.5523 2 12 1.55228 12 1C12 0.447715 11.5523 0 11 0C10.4477 0 10 0.447715 10 1C10 1.55228 10.4477 2 11 2Z" fill="#3D474D"/>
<path d="M11 11.5C11.5523 11.5 12 11.0523 12 10.5C12 9.94771 11.5523 9.5 11 9.5C10.4477 9.5 10 9.94771 10 10.5C10 11.0523 10.4477 11.5 11 11.5Z" fill="#3D474D"/>
<path d="M14 4H12C12 4.18214 12.0487 4.35291 12.1338 4.5H13.8662C13.9513 4.35291 14 4.18214 14 4Z" fill="#3D474D"/>
<path d="M13.8662 4.5H12.1338C12.3067 4.7989 12.6299 5 13 5C13.3701 5 13.6933 4.7989 13.8662 4.5Z" fill="#3D474D"/>
<path d="M9.75 5.5H8.25V6H9.75V5.5Z" fill="#3D474D"/>
<path d="M9 15.25V16.75H9.75V15.25H9Z" fill="#3D474D"/>
<path fill-rule="evenodd" clip-rule="evenodd" d="M16 4H14C14 3.44772 13.5523 3 13 3C12.4477 3 12 3.44772 12 4H8C7.44772 4 7 4.44772 7 5C7 5.55228 7.44772 6 8 6H8.25V20C8.25 22.0711 9.92893 23.75 12 23.75C14.0711 23.75 15.75 22.0711 15.75 20V6H16C16.5523 6 17 5.55228 17 5C17 4.44771 16.5523 4 16 4ZM9.75 6H8.25V5.5H8C7.72386 5.5 7.5 5.27614 7.5 5C7.5 4.72386 7.72386 4.5 8 4.5H12.1338C12.0487 4.35291 12 4.18214 12 4H14C14 4.18214 13.9513 4.35291 13.8662 4.5H16C16.2761 4.5 16.5 4.72386 16.5 5C16.5 5.27614 16.2761 5.5 16 5.5H15.75H14.25H9.75V6ZM11.9685 15.25H14.25V6H9.75V15.25H9V16.75H9.75V20C9.75 21.2426 10.7574 22.25 12 22.25C13.2426 22.25 14.25 21.2426 14.25 20V16.75H9.75V15.25H10.0315C10.1425 15.6813 10.534 16 11 16C11.466 16 11.8575 15.6813 11.9685 15.25ZM11.9685 15.25C11.9891 15.1701 12 15.0863 12 15C12 14.4477 11.5523 14 11 14C10.4477 14 10 14.4477 10 15C10 15.0863 10.0109 15.1701 10.0315 15.25H11.9685Z" fill="#3D474D"/>
<path d="M10.0315 15.25C10.1425 15.6813 10.534 16 11 16C11.466 16 11.8575 15.6813 11.9685 15.25H10.0315Z" fill="#3D474D"/>
<path d="M14.25 5.5H15.75H16C16.2761 5.5 16.5 5.27614 16.5 5C16.5 4.72386 16.2761 4.5 16 4.5H13.8662C13.6933 4.7989 13.3701 5 13 5C12.6299 5 12.3067 4.7989 12.1338 4.5H8C7.72386 4.5 7.5 4.72386 7.5 5C7.5 5.27614 7.72386 5.5 8 5.5H8.25H9.75H14.25Z" fill="#3D474D"/>
</svg>

<svg xmlns="http://www.w3.org/2000/svg" fill="none" viewBox="0 0 24 24" width="100%" height="100%">
  <path fill="#3D474D" d="M13 14a1 1 0 1 0 0-2 1 1 0 0 0 0 2ZM11 2a1 1 0 1 0 0-2 1 1 0 0 0 0 2Zm0 9.5a1 1 0 1 0 0-2 1 1 0 0 0 0 2ZM14 4h-2c0 .182.049.353.134.5h1.732A.995.995 0 0 0 14 4Zm-.134.5h-1.732a1 1 0 0 0 1.732 0Zm-4.116 1h-1.5V6h1.5v-.5ZM9 15.25v1.5h.75v-1.5H9Z"/>
  <path fill="#3D474D" fill-rule="evenodd" d="M16 4h-2a1 1 0 1 0-2 0H8a1 1 0 0 0 0 2h.25v14a3.75 3.75 0 1 0 7.5 0V6H16a1 1 0 1 0 0-2ZM9.75 6h-1.5v-.5H8a.5.5 0 0 1 0-1h4.134A.995.995 0 0 1 12 4h2a.995.995 0 0 1-.134.5H16a.5.5 0 0 1 0 1H9.75V6Zm2.219 9.25h2.281V6h-4.5v9.25H9v1.5h.75V20a2.25 2.25 0 0 0 4.5 0v-3.25h-4.5v-1.5h.281a1 1 0 0 0 1.938 0Zm0 0a1 1 0 1 0-1.938 0h1.938Z" clip-rule="evenodd"/>
  <path fill="#3D474D" d="M10.031 15.25a1 1 0 0 0 1.938 0H10.03ZM14.25 5.5H16a.5.5 0 0 0 0-1h-2.134a1 1 0 0 1-1.732 0H8a.5.5 0 0 0 0 1h6.25Z"/>
</svg>
